img/icon/telegram.svg

<svg width="34" height="34" viewBox="0 0 34 34" fill="none" xmlns="http://www.w3.org/2000/svg">
<g clip-path="url(#clip0_2_53)">
<path d="M34 17C34 21.5087 32.2089 25.8327 29.0208 29.0208C25.8327 32.2089 21.5087 34 17 34C12.4913 34 8.1673 32.2089 4.97919 29.0208C1.79107 25.8327 0 21.5087 0 17C0 12.4913 1.79107 8.1673 4.97919 4.97919C8.1673 1.79107 12.4913 0 17 0C21.5087 0 25.8327 1.79107 29.0208 4.97919C32.2089 8.1673 34 12.4913 34 17ZM17.6099 12.5503C15.9566 13.2388 12.6501 14.6625 7.69462 16.8215C6.89138 17.1402 6.4685 17.4548 6.43025 17.7607C6.3665 18.2771 7.01463 18.4811 7.8965 18.7595L8.26838 18.8764C9.13538 19.159 10.3041 19.4884 10.9097 19.5011C11.4622 19.5139 12.0764 19.2886 12.7542 18.8211C17.3846 15.6953 19.7753 14.1164 19.924 14.0824C20.0303 14.0569 20.179 14.0271 20.2767 14.1164C20.3766 14.2035 20.366 14.3714 20.3554 14.416C20.2916 14.6901 17.748 17.0531 16.4326 18.2771C16.0225 18.6596 15.7314 18.9295 15.6719 18.9911C15.5409 19.125 15.4077 19.2568 15.2724 19.3864C14.4649 20.1641 13.8614 20.7464 15.3043 21.6984C15.9991 22.1574 16.5559 22.5335 17.1105 22.9117C17.714 23.324 18.3175 23.7341 19.0995 24.2484C19.2971 24.3759 19.4884 24.514 19.6733 24.6457C20.3766 25.1472 21.012 25.5977 21.7919 25.5255C22.2466 25.483 22.7162 25.058 22.9543 23.783C23.5174 20.7719 24.6245 14.2502 24.8795 11.5621C24.8951 11.3387 24.8858 11.1142 24.8519 10.8927C24.8319 10.7141 24.7454 10.5495 24.6096 10.4316C24.4163 10.2982 24.1858 10.229 23.9509 10.234C23.3134 10.2446 22.3295 10.5868 17.6099 12.5503Z" fill="#0075FF"/>
</g>
<defs>
<clipPath id="clip0_2_53">
<rect width="34" height="34" fill="white"/>
</clipPath>
</defs>
</svg>

<svg width="34" height="34" fill="none" xmlns="http://www.w3.org/2000/svg"><g clip-path="url(#clip0_2_53)"><path d="M34 17a17 17 0 11-34 0 17 17 0 0134 0zm-16.39-4.45c-1.653.689-4.96 2.112-9.915 4.271-.804.32-1.227.634-1.265.94-.063.516.585.72 1.466.998l.372.117c.867.283 2.036.612 2.642.625.552.013 1.166-.212 1.844-.68 4.63-3.126 7.021-4.705 7.17-4.739.106-.025.255-.055.353.034.1.088.089.255.078.3-.063.274-2.607 2.637-3.922 3.861-.41.383-.702.652-.761.714-.131.134-.264.266-.4.395-.807.778-1.41 1.36.032 2.312.695.46 1.252.835 1.806 1.214.604.412 1.207.822 1.99 1.336.197.128.388.266.573.398.704.501 1.339.952 2.119.88.455-.043.924-.468 1.162-1.743.563-3.011 1.67-9.533 1.925-12.22a3.03 3.03 0 00-.027-.67.716.716 0 00-.242-.461 1.118 1.118 0 00-.66-.198c-.637.01-1.62.353-6.34 2.316z" fill="#0075FF"/></g><defs><clipPath id="clip0_2_53"><path fill="#fff" d="M0 0h34v34H0z"/></clipPath></defs></svg>
